Resources/Icons/PCGEx_Editor_DensityBounds.svg

<?xml version="1.0" encoding="UTF-8"?>
<svg id="icons" xmlns="http://www.w3.org/2000/svg" viewBox="0 0 100 100">
  <defs>
    <style>
      .cls-1 {
        fill: #fff;
      }

      .cls-2 {
        fill: #4d8dfc;
      }
    </style>
  </defs>
  <g>
    <path class="cls-2" d="M83.95,85.57h-3c-1.38,0-2.5-1.12-2.5-2.5s1.12-2.5,2.5-2.5h.5v-.5c0-1.38,1.12-2.5,2.5-2.5s2.5,1.12,2.5,2.5v3c0,1.38-1.12,2.5-2.5,2.5Z"/>
    <path class="cls-2" d="M70.02,85.57h-5.47c-1.38,0-2.5-1.12-2.5-2.5s1.12-2.5,2.5-2.5h5.47c1.38,0,2.5,1.12,2.5,2.5s-1.12,2.5-2.5,2.5ZM53.62,85.57h-5.47c-1.38,0-2.5-1.12-2.5-2.5s1.12-2.5,2.5-2.5h5.47c1.38,0,2.5,1.12,2.5,2.5s-1.12,2.5-2.5,2.5ZM37.22,85.57h-5.47c-1.38,0-2.5-1.12-2.5-2.5s1.12-2.5,2.5-2.5h5.47c1.38,0,2.5,1.12,2.5,2.5s-1.12,2.5-2.5,2.5Z"/>
    <path class="cls-2" d="M20.82,85.57h-3c-1.38,0-2.5-1.12-2.5-2.5v-3c0-1.38,1.12-2.5,2.5-2.5s2.5,1.12,2.5,2.5v.5h.5c1.38,0,2.5,1.12,2.5,2.5s-1.12,2.5-2.5,2.5Z"/>
    <path class="cls-2" d="M17.82,71.63c-1.38,0-2.5-1.12-2.5-2.5v-5.47c0-1.38,1.12-2.5,2.5-2.5s2.5,1.12,2.5,2.5v5.47c0,1.38-1.12,2.5-2.5,2.5ZM17.82,55.23c-1.38,0-2.5-1.12-2.5-2.5v-5.47c0-1.38,1.12-2.5,2.5-2.5s2.5,1.12,2.5,2.5v5.47c0,1.38-1.12,2.5-2.5,2.5ZM17.82,38.83c-1.38,0-2.5-1.12-2.5-2.5v-5.47c0-1.38,1.12-2.5,2.5-2.5s2.5,1.12,2.5,2.5v5.47c0,1.38-1.12,2.5-2.5,2.5Z"/>
    <path class="cls-2" d="M17.82,22.43c-1.38,0-2.5-1.12-2.5-2.5v-3c0-1.38,1.12-2.5,2.5-2.5h3c1.38,0,2.5,1.12,2.5,2.5s-1.12,2.5-2.5,2.5h-.5v.5c0,1.38-1.12,2.5-2.5,2.5Z"/>
    <path class="cls-2" d="M70.02,19.43h-5.47c-1.38,0-2.5-1.12-2.5-2.5s1.12-2.5,2.5-2.5h5.47c1.38,0,2.5,1.12,2.5,2.5s-1.12,2.5-2.5,2.5ZM53.62,19.43h-5.47c-1.38,0-2.5-1.12-2.5-2.5s1.12-2.5,2.5-2.5h5.47c1.38,0,2.5,1.12,2.5,2.5s-1.12,2.5-2.5,2.5ZM37.22,19.43h-5.47c-1.38,0-2.5-1.12-2.5-2.5s1.12-2.5,2.5-2.5h5.47c1.38,0,2.5,1.12,2.5,2.5s-1.12,2.5-2.5,2.5Z"/>
    <path class="cls-2" d="M83.95,22.43c-1.38,0-2.5-1.12-2.5-2.5v-.5h-.5c-1.38,0-2.5-1.12-2.5-2.5s1.12-2.5,2.5-2.5h3c1.38,0,2.5,1.12,2.5,2.5v3c0,1.38-1.12,2.5-2.5,2.5Z"/>
    <path class="cls-2" d="M83.95,71.63c-1.38,0-2.5-1.12-2.5-2.5v-5.47c0-1.38,1.12-2.5,2.5-2.5s2.5,1.12,2.5,2.5v5.47c0,1.38-1.12,2.5-2.5,2.5ZM83.95,55.23c-1.38,0-2.5-1.12-2.5-2.5v-5.47c0-1.38,1.12-2.5,2.5-2.5s2.5,1.12,2.5,2.5v5.47c0,1.38-1.12,2.5-2.5,2.5ZM83.95,38.83c-1.38,0-2.5-1.12-2.5-2.5v-5.47c0-1.38,1.12-2.5,2.5-2.5s2.5,1.12,2.5,2.5v5.47c0,1.38-1.12,2.5-2.5,2.5Z"/>
  </g>
  <polygon class="cls-2" points="65.28 31.38 80.28 16.38 83.8 19.93 68.84 34.89 65.28 31.38"/>
  <g>
    <rect x="30.11" y="29.23" width="41.54" height="41.54"/>
    <path class="cls-1" d="M71.65,71.77H30.11c-.55,0-1-.45-1-1V29.23c0-.55.45-1,1-1h41.54c.55,0,1,.45,1,1v41.54c0,.55-.45,1-1,1ZM31.11,69.77h39.54V30.23H31.11v39.54Z"/>
  </g>
</svg>

<svg id="icons" xmlns="http://www.w3.org/2000/svg" viewBox="0 0 100 100">
    <defs>
        <style>.cls-1{fill:#4d8dfc;}.cls-2{fill:#fff;}</style>
    </defs>
    <path class="cls-1" d="M84,85.57H81a2.5,2.5,0,1,1,0-5h.5v-.5a2.5,2.5,0,0,1,5,0v3A2.5,2.5,0,0,1,84,85.57Z"/>
    <path class="cls-1"
          d="M70,85.57H64.55a2.5,2.5,0,0,1,0-5H70a2.5,2.5,0,0,1,0,5Zm-16.4,0H48.15a2.5,2.5,0,0,1,0-5h5.47a2.5,2.5,0,1,1,0,5Zm-16.4,0H31.75a2.5,2.5,0,0,1,0-5h5.47a2.5,2.5,0,0,1,0,5Z"/>
    <path class="cls-1" d="M20.82,85.57h-3a2.5,2.5,0,0,1-2.5-2.5v-3a2.5,2.5,0,0,1,5,0v.5h.5a2.5,2.5,0,0,1,0,5Z"/>
    <path class="cls-1"
          d="M17.82,71.63a2.49,2.49,0,0,1-2.5-2.5V63.67a2.5,2.5,0,0,1,5,0v5.46A2.49,2.49,0,0,1,17.82,71.63Zm0-16.4a2.5,2.5,0,0,1-2.5-2.5V47.27a2.5,2.5,0,0,1,5,0v5.46A2.5,2.5,0,0,1,17.82,55.23Zm0-16.4a2.5,2.5,0,0,1-2.5-2.5V30.87a2.5,2.5,0,1,1,5,0v5.46A2.5,2.5,0,0,1,17.82,38.83Z"/>
    <path class="cls-1"
          d="M17.82,22.43a2.5,2.5,0,0,1-2.5-2.5v-3a2.5,2.5,0,0,1,2.5-2.5h3a2.5,2.5,0,0,1,0,5h-.5v.5A2.5,2.5,0,0,1,17.82,22.43Z"/>
    <path class="cls-1"
          d="M70,19.43H64.55a2.5,2.5,0,0,1,0-5H70a2.5,2.5,0,0,1,0,5Zm-16.4,0H48.15a2.5,2.5,0,0,1,0-5h5.47a2.5,2.5,0,0,1,0,5Zm-16.4,0H31.75a2.5,2.5,0,0,1,0-5h5.47a2.5,2.5,0,0,1,0,5Z"/>
    <path class="cls-1"
          d="M84,22.43a2.5,2.5,0,0,1-2.5-2.5v-.5H81a2.5,2.5,0,0,1,0-5h3a2.5,2.5,0,0,1,2.5,2.5v3A2.5,2.5,0,0,1,84,22.43Z"/>
    <path class="cls-1"
          d="M84,71.63a2.5,2.5,0,0,1-2.5-2.5V63.67a2.5,2.5,0,0,1,5,0v5.46A2.5,2.5,0,0,1,84,71.63Zm0-16.4a2.5,2.5,0,0,1-2.5-2.5V47.27a2.5,2.5,0,1,1,5,0v5.46A2.5,2.5,0,0,1,84,55.23Zm0-16.4a2.5,2.5,0,0,1-2.5-2.5V30.87a2.5,2.5,0,0,1,5,0v5.46A2.5,2.5,0,0,1,84,38.83Z"/>
    <polygon class="cls-1" points="65.28 31.38 80.28 16.38 83.8 19.93 68.84 34.89 65.28 31.38"/>
    <rect x="30.11" y="29.23" width="41.54" height="41.54"/>
    <path class="cls-2"
          d="M71.65,71.77H30.11a1,1,0,0,1-1-1V29.23a1,1,0,0,1,1-1H71.65a1,1,0,0,1,1,1V70.77A1,1,0,0,1,71.65,71.77Zm-40.54-2H70.65V30.23H31.11Z"/>
</svg>
